src/pos-icons/circle-multiple.svg

<svg height="24" viewBox="0 0 24 24" width="24" xmlns="http://www.w3.org/2000/svg"><path d="m15 4a8 8 0 1 1 -8 8 8 8 0 0 1 8-8m-12 8a6 6 0 0 0 4 5.65v2.09a8 8 0 0 1 0-15.48v2.09a6 6 0 0 0 -4 5.65z"/></svg>

<?xml version="1.0" encoding="UTF-8"?><!DOCTYPE svg PUBLIC "-//W3C//DTD SVG 1.1//EN" "http://www.w3.org/Graphics/SVG/1.1/DTD/svg11.dtd"><svg xmlns="http://www.w3.org/2000/svg" xmlns:xlink="http://www.w3.org/1999/xlink" version="1.1" id="mdi-circle-multiple" width="24" height="24" viewBox="0 0 24 24"><path d="M15 4A8 8 0 1 1 7 12A8 8 0 0 1 15 4M3 12A6 6 0 0 0 7 17.65V19.74A8 8 0 0 1 7 4.26V6.35A6 6 0 0 0 3 12Z" /></svg>
